X:1
T: Dovecote Park
C:
R:Jig
Q:180
K:D
M:6/8
L:1/16
|:f2|A4A2 B4A2|A3df2 a4g2|f4f2 A3df2|a3fd2 e4f2|
A4A2 B4A2|A3df2 a4g2|f3ga2 e3cA2|d6 d4:|
|:g2|f3ga2 d4e2|f3ed2 a4f2|e4e2 A3Bc2|
|1e2g2f2 e4g2|f3ga2 d4e2|f3ed2 a4g2|f3ga2 e3cA2|d6d4:|
|2e2g2f2 e4f2|A4A2 B4A2|A3df2 d4e2|f3ga2 e3cA2|d6 d4|
|:f2|A3df2 f3ef2|A3df2 a4g2|f3ed2 A3df2|e6 e4f2|
A3df2 f3ef2|a3fd2 B4g2|f3ga2 e3cA2|d6 d4:|
|:g2|a3fd2 A3df2|f3ed2 B4d2|A3df2 a3fd2|e6 e4f2|
|1a3fd2 A3df2|f3ed2 B4g2|f3ga2 e3cA2|d6 d4:|
|2A3df2 f3ef2|a3fd2 B4g2|f3ga2 e3cA2|d6 d4||
